wp-expand-tabs-free/admin/img/tabs-layout/tabs-carousel.svg

<svg width="120" height="92" viewBox="0 0 120 92" fill="none" xmlns="http://www.w3.org/2000/svg">
<rect x="1" y="1" width="118" height="90" rx="3" fill="white"/>
<path d="M51 18C51 17.0572 51 16.5858 51.2929 16.2929C51.5858 16 52.0572 16 53 16H67C67.9428 16 68.4142 16 68.7071 16.2929C69 16.5858 69 17.0572 69 18V25C69 25.9428 69 26.4142 68.7071 26.7071C68.4142 27 67.9428 27 67 27H53C52.0572 27 51.5858 27 51.2929 26.7071C51 26.4142 51 25.9428 51 25V18Z" fill="#8796A1"/>
<path d="M46 25V26H47H98C98.4997 26 98.7738 26.0021 98.964 26.0277C98.9665 26.028 98.9689 26.0284 98.9713 26.0287C98.9716 26.0311 98.972 26.0335 98.9723 26.036C98.9979 26.2262 99 26.5003 99 27V74C99 74.4997 98.9979 74.7738 98.9723 74.964C98.972 74.9665 98.9716 74.9689 98.9713 74.9713C98.9689 74.9716 98.9665 74.972 98.964 74.9723C98.7738 74.9979 98.4997 75 98 75H22C21.5003 75 21.2262 74.9979 21.036 74.9723C21.0335 74.972 21.0311 74.9716 21.0287 74.9713C21.0284 74.9689 21.028 74.9665 21.0277 74.964C21.0021 74.7738 21 74.4997 21 74V27C21 26.5003 21.0021 26.2262 21.0277 26.036C21.028 26.0335 21.0284 26.0311 21.0287 26.0287C21.0311 26.0284 21.0335 26.028 21.036 26.0277C21.2262 26.0021 21.5003 26 22 26H29H30V25V18C30 17.5003 30.0021 17.2262 30.0277 17.036C30.028 17.0335 30.0284 17.0311 30.0287 17.0287C30.0311 17.0284 30.0335 17.028 30.036 17.0277C30.2262 17.0021 30.5003 17 31 17L40 17L45.0011 17C45.5004 17 45.7742 17.0021 45.9642 17.0277C45.9666 17.028 45.969 17.0283 45.9713 17.0287C45.9716 17.0311 45.972 17.0335 45.9723 17.036C45.9979 17.2262 46 17.5003 46 18V25Z" fill="white" stroke="#8796A1" stroke-width="2"/>
<path d="M73 18C73 17.0572 73 16.5858 73.2929 16.2929C73.5858 16 74.0572 16 75 16H89C89.9428 16 90.4142 16 90.7071 16.2929C91 16.5858 91 17.0572 91 18V25C91 25.9428 91 26.4142 90.7071 26.7071C90.4142 27 89.9428 27 89 27H75C74.0572 27 73.5858 27 73.2929 26.7071C73 26.4142 73 25.9428 73 25V18Z" fill="#8796A1"/>
<path d="M25.9491 22.3709C26.2303 22.652 26.2303 23.1081 25.9491 23.3891C25.8084 23.5296 25.6243 23.6 25.44 23.6C25.2558 23.6 25.0716 23.5296 24.931 23.389L22.051 20.509C21.7697 20.228 21.7697 19.7719 22.051 19.4909L24.931 16.6109C25.2123 16.3296 25.6679 16.3296 25.9491 16.6109C26.2304 16.8919 26.2304 17.348 25.9491 17.629L23.5782 19.9999L25.9491 22.3709Z" fill="#252525"/>
<path d="M94.0509 22.3709C93.7697 22.652 93.7697 23.1081 94.0509 23.3891C94.1916 23.5296 94.3757 23.6 94.56 23.6C94.7442 23.6 94.9284 23.5296 95.069 23.389L97.949 20.509C98.2303 20.228 98.2303 19.7719 97.949 19.4909L95.069 16.6109C94.7877 16.3296 94.3321 16.3296 94.0509 16.6109C93.7696 16.8919 93.7696 17.348 94.0509 17.629L96.4218 19.9999L94.0509 22.3709Z" fill="#252525"/>
<rect x="1" y="1" width="118" height="90" rx="3" stroke="#CCCCCC" stroke-width="2"/>
</svg>

<svg xmlns="http://www.w3.org/2000/svg" width="120" height="92" fill="none"><rect x="1" y="1" width="118" height="90" rx="3" fill="#fff"/><path d="M51 18c0-.943 0-1.414.293-1.707S52.057 16 53 16h14c.943 0 1.414 0 1.707.293S69 17.057 69 18v7c0 .943 0 1.414-.293 1.707S67.943 27 67 27H53c-.943 0-1.414 0-1.707-.293S51 25.943 51 25v-7z" fill="#8796a1"/><path d="M46 25v1h1 52l.964.028c.034.198.036.473.036.972v48l-.028.964c-.199.034-.473.036-.972.036H21c-.5 0-.774-.002-.964-.028C20.002 75.774 20 75.5 20 75V27l.028-.964c.198-.034.473-.036.972-.036h8 1v-1-7l.028-.964c.198-.034.473-.036.972-.036h9 5.001l.963.028c.034.198.036.473.036.972v7z" fill="#fff" stroke="#8796a1" stroke-width="2"/><path d="M73 18c0-.943 0-1.414.293-1.707S74.057 16 75 16h14c.943 0 1.414 0 1.707.293S91 17.057 91 18v7c0 .943 0 1.414-.293 1.707S89.943 27 89 27H75c-.943 0-1.414 0-1.707-.293S73 25.943 73 25v-7z" fill="#8796a1"/><path d="M25.949 22.371a.72.72 0 0 1-1.018 1.018l-2.88-2.88a.72.72 0 0 1 0-1.018l2.88-2.88a.72.72 0 0 1 1.018 1.018L23.578 20l2.371 2.371zm68.102 0a.72.72 0 0 0 1.018 1.018l2.88-2.88a.72.72 0 0 0 0-1.018l-2.88-2.88a.72.72 0 0 0-1.018 1.018L96.422 20l-2.371 2.371z" fill="#525454"/><rect x="1" y="1" width="118" height="90" rx="3" stroke="#ccc" stroke-width="2"/></svg>
